X: 124
P: Longways for as many as will
M: 3/2
L: 1/8
K: D
[|\
d4 F4 E4 | F2 D4 EF G2E2 | d4 F4 f4 | e2dc B2cd c2A2 |\
a4 f4 g4 | f2d2 e2c2 d2A2 | d2 F4 E4 c2 | d6 F2 E2D2 |]
[|\
a2 e4 fg f2e2 | FGA2 B2c2 d2F2 | (EF)E2 FGF2 ABA2 | B2 d4 c2 d4 |]

